flaticon/sewing/thread-4.svg

<svg xmlns="http://www.w3.org/2000/svg" width="32" height="32" viewBox="0 0 24 24">
    <path d="M 21.878906 2.039062 C 22.078125 1.878906 22.199219 1.640625 22.199219 1.359375 L 22.199219 0.921875 C 22.199219 0.398438 21.800781 0 21.28125 0 L 7.121094 0 C 6.601562 0 6.199219 0.398438 6.199219 0.921875 L 6.199219 1.359375 C 6.199219 1.640625 6.320312 1.878906 6.519531 2.039062 L 9.398438 4.585938 L 9.398438 13.015625 C 9.164062 12.878906 8.890625 12.800781 8.601562 12.800781 C 7.921875 12.800781 7.398438 12.28125 7.398438 11.601562 C 7.398438 10.039062 6.160156 8.800781 4.601562 8.800781 C 3.039062 8.800781 1.800781 10.039062 1.800781 11.601562 C 1.800781 13.160156 3.039062 14.398438 4.601562 14.398438 C 4.839844 14.398438 5 14.238281 5 14 C 5 13.761719 4.839844 13.601562 4.601562 13.601562 C 3.480469 13.601562 2.601562 12.71875 2.601562 11.601562 C 2.601562 10.480469 3.480469 9.601562 4.601562 9.601562 C 5.71875 9.601562 6.601562 10.480469 6.601562 11.601562 C 6.601562 12.71875 7.480469 13.601562 8.601562 13.601562 C 9.039062 13.601562 9.398438 13.960938 9.398438 14.398438 L 9.398438 19.414062 L 6.519531 21.960938 C 6.320312 22.121094 6.199219 22.359375 6.199219 22.640625 L 6.199219 23.078125 C 6.199219 23.601562 6.601562 24 7.121094 24 L 21.28125 24 C 21.800781 24 22.199219 23.601562 22.199219 23.078125 L 22.199219 22.640625 C 22.199219 22.398438 22.078125 22.121094 21.878906 21.960938 L 19 19.414062 L 19 4.585938 Z M 7 1.359375 L 7 0.921875 C 7 0.839844 7.039062 0.800781 7.121094 0.800781 L 21.28125 0.800781 C 21.359375 0.800781 21.398438 0.839844 21.398438 0.921875 L 21.398438 1.359375 C 21.398438 1.398438 21.398438 1.441406 21.359375 1.441406 L 18.441406 4 L 9.960938 4 L 7.039062 1.441406 C 7 1.441406 7 1.398438 7 1.359375 Z M 18.199219 15.363281 L 11.296875 19.199219 L 10.199219 19.199219 L 10.199219 17.835938 L 18.199219 13.472656 Z M 18.199219 16.277344 L 18.199219 19.199219 L 12.941406 19.199219 Z M 17.535156 12.921875 L 15.472656 14.050781 L 10.199219 12.140625 L 10.199219 10.921875 Z M 18.199219 12.277344 L 16.46875 11.804688 L 18.199219 10.722656 Z M 17.855469 4.800781 L 10.199219 9.671875 L 10.199219 8.207031 L 15.121094 4.800781 Z M 10.199219 7.234375 L 10.199219 4.800781 L 13.71875 4.800781 Z M 10.199219 12.992188 L 14.535156 14.5625 L 12.808594 15.5 L 10.199219 14.523438 Z M 10.199219 15.378906 L 11.882812 16.007812 L 10.199219 16.925781 Z M 18.199219 9.777344 L 15.417969 11.515625 L 13.652344 11.035156 L 18.199219 8.304688 Z M 18.199219 7.375 L 12.582031 10.742188 L 10.78125 10.253906 L 18.199219 5.527344 Z M 21.398438 22.640625 L 21.398438 23.078125 C 21.398438 23.160156 21.359375 23.199219 21.28125 23.199219 L 7.121094 23.199219 C 7.039062 23.199219 7 23.160156 7 23.078125 L 7 22.640625 C 7 22.601562 7 22.558594 7.039062 22.558594 L 9.960938 20 L 18.441406 20 L 21.359375 22.558594 C 21.398438 22.558594 21.398438 22.601562 21.398438 22.640625 Z M 21.398438 22.640625"/>
</svg>

<svg xmlns="http://www.w3.org/2000/svg" width="32" height="32" viewBox="0 0 24 24">
    <path d="M21.879 2.04c.2-.161.32-.4.32-.68V.921A.903.903 0 0 0 21.281 0H7.121A.907.907 0 0 0 6.2.922v.437c0 .282.121.52.32.68L9.4 4.586v8.43a1.58 1.58 0 0 0-.797-.215 1.18 1.18 0 0 1-1.204-1.2 2.78 2.78 0 0 0-2.796-2.8A2.781 2.781 0 0 0 1.8 11.6a2.78 2.78 0 0 0 2.8 2.797c.239 0 .399-.16.399-.398 0-.238-.16-.398-.398-.398-1.122 0-2-.883-2-2 0-1.122.878-2 2-2 1.117 0 2 .878 2 2 0 1.117.878 2 2 2a.8.8 0 0 1 .796.796v5.016L6.52 21.961c-.2.16-.32.398-.32.68v.437c0 .524.402.922.921.922h14.16c.52 0 .918-.398.918-.922v-.437a.915.915 0 0 0-.32-.68L19 19.414V4.586zM7 1.36V.921C7 .84 7.04.8 7.121.8h14.16c.078 0 .117.039.117.12v.438c0 .04 0 .082-.039.082L18.441 4h-8.48L7.039 1.441C7 1.441 7 1.398 7 1.36zm11.2 14.003L11.296 19.2h-1.098v-1.363l8-4.363zm0 .914V19.2H12.94zm-.665-3.355l-2.062 1.129-5.274-1.91v-1.22zm.664-.645l-1.73-.472 1.73-1.082zm-.344-7.476L10.2 9.67V8.208l4.922-3.406zM10.2 7.234V4.801h3.52zm0 5.758l4.336 1.57-1.726.938-2.61-.977zm0 2.387l1.684.629-1.684.918zm8-5.602l-2.781 1.739-1.766-.48L18.2 8.304zm0-2.402l-5.617 3.367-1.8-.488 7.417-4.727zm3.2 15.266v.437c0 .082-.04.121-.118.121H7.121C7.04 23.2 7 23.16 7 23.08v-.438c0-.04 0-.082.04-.082L9.96 20h8.481l2.918 2.559c.04 0 .04.043.04.082zm0 0"/>
</svg>
